!!!COM: Scriabin, Alexander
!!!OTL: Prelude
!!!OPR: 5 Preludes
!!!OPS: 74
!!!ONM: 2
!!!ODT: 1914
!!!AGN: Prelude
**kern	**kern
*staff2	*staff1
*clefF4	*clefG2
*k[]	*k[]
*M4/8	*M4/8
=1	=1
8qFFF#X/	.
[2FF#X [2C#X	4a
.	8b#XL
.	8aJ
=2	=2
2FF#] 2C#]	8gL
.	8f#XJ
.	8e#XL
.	[8enJ
=3	=3
*^	*^
8C#XL	4FF#X	8e]	4r
8CnJ 8G	.	8raa	.
8C#XL	4FF#	4raa	16r
.	.	.	16B#XLL
8CnJ 8G	.	.	16Bn
.	.	.	[16B-XJJ
=4	=4	=4	=4
*	*	*	*^
8C#XL	4FF#X	2ryy	16rc	4B-\]
.	.	.	16e#XLL	.
8CnJ 8G	.	.	16en	.
.	.	.	16e-XJJ	.
8D#XL	4FF#	.	16rc	8B#X\L
.	.	.	16gLL	.
8DnJ 8A	.	.	16f#X	8A\J
.	.	.	16e#XJJ	.
=5	=5	=5	=5	=5
8C#XL	4FF#X	4an	16rc	4A#X\
.	.	.	16e#XLL	.
8CnJ 8G	.	.	16en	.
.	.	.	16e-XJJ	.
8C#XL	4FF#	8b#XL	16f#XLL	4A#\
.	.	.	16e#X	.
8CnJ 8G	.	8anJ	16en	.
.	.	.	16e-XJJ	.
=6	=6	=6	=6	=6
8C#XL	4FF#X	8gL	16enKL	4A#X\
.	.	.	8e-X	.
8CnJ 8G	.	8f#XJ	.	.
.	.	.	16dJk	.
8C#XL	4FF#	8e#XL	16d#XKL	[4A#\
.	.	.	8dn	.
8CnJ 8G	.	[8enJ	.	.
.	.	.	[16d-XJk	.
=7	=7	=7	=7	=7
8C#XL	4FF#X	2e]	8d-]	8A#\]
8CnJ 8G	.	.	8rc	8r
8C#XL	4FF#	.	4rc	16r
.	.	.	.	16B#X\LL
8CnJ 8G	.	.	.	16Bn\
.	.	.	.	[16B-X\JJ
=8	=8	=8	=8	=8
8C#XL	4FF#X	4raa	16rc	4B-/]
.	.	.	16e#XLL	.
8CnJ 8G	.	.	16en	.
.	.	.	16e-XJJ	.
8D#XL	4FF#	8raa	16rc	4B#X/
.	.	.	16gLL	.
8DnJ 8A	.	8bn	16f#X	.
.	.	.	16e#XJJ	.
=9	=9	=9	=9	=9
8C#XL	4FF#X	4b#X	16f#XLL	4A#X/
.	.	.	16e#X	.
8CnJ 8G	.	.	16en	.
.	.	.	16e-XJJ	.
8C#XL	4FF#	8b#L 8dd#X	16f#LL	4A#/
.	.	.	16e#X	.
8CnJ 8G	.	8anJ 8ccn	16en	.
.	.	.	16e-XJJ	.
=10	=10	=10	=10	=10
8C#XL	4FF#X	8gL 8a#X	16enKL	4A#X/
.	.	.	8e-X	.
8CnJ 8G	.	8f#XJ 8an	.	.
.	.	.	16dJk	.
8C#XL	4FF#	8e#XL 8g#X	16d#XKL	4A#/
.	.	.	8dn	.
8CnJ 8G	.	8enJ 8gn	.	.
.	.	.	16d-XJk	.
=11	=11	=11	=11	=11
8D#XL	4FF#X	8raa	16rc	4B#X/
.	.	.	16gLL	.
8DnJ 8A	.	8bn	16f#X	.
.	.	.	16e#XJJ	.
8C#XL	4FF#	8b#XL	16f#LL	4A#X/
.	.	.	16e#X	.
8CnJ 8G	.	8anJ	16en	.
.	.	.	16e-XJJ	.
=12	=12	=12	=12	=12
8D#XL	4FF#X	8a#XL	16g#XLL	4B#X/
.	.	.	16gn	.
8DnJ 8An	.	8bnJ	16f#X	.
.	.	.	16fnJJ	.
8C#XL	4FF#	8b#XL	16f#XLL	4A#X/
.	.	.	16e#X	.
8CnJ 8G	.	[8anJ	16en	.
.	.	.	16e-XJJ	.
=13	=13	=13	=13	=13
8C#XL	4FF#X	4a]	16f#XLL	2A#X/
.	.	.	16e#X	.
8CnJ 8G	.	.	16en	.
.	.	.	16e-XJJ	.
8C#XL	4FF#	4raa	16rc	.
.	.	.	16e#XLL	.
8CnJ 8G	.	.	16en	.
.	.	.	16e-XJJ	.
*	*	*v	*v	*v
=14	=14	=14
8C#XL	4FF#X	16r
.	.	16B#XLL
8CnJ 8G	.	16Bn
.	.	[16B-XJJ
8C#XL	4FF#	16B-]
.	.	16r
8CnJ 8G	.	8r
*v	*v	*
=15	=15
8qFFF#X/	.
[2FF#X [2C#X	4a
.	8b#XL
.	8aJ
=16	=16
2FF#_ 2C#_	8gL
.	8f#XJ
.	8e#XL
.	[8enJ
=17	=17
8FF#] 8C#]	8e]
8r	8r
4r	4r
==	==
*-	*-
!!!system-decoration: {(s1,s2)}
